**kern	**mxhm
*clefG2	*
*k[b-e-a-d-g-]	*
*D-:	*
=	=
2r	.
8r	.
8cc	.
12a-L	.
12f	.
12d-J	.
=	=
2.c	D- major-seventh
8d-L	.
[8anJ	.
=	=
2a]	B- major-seventh
2b-	B- augmented-seventh
=	=
[1f	E- dominant-ninth
=	=
2f]	.
8r	.
8a-	.
12fL	.
12d-	.
12AnJ	.
!!linebreak:original
=	=
2.G#X	A major-sixth
4An	.
=	=
2en	.
2f	A- dominant
=	=
[1e-Xi	D- major-seventh
=	=
4e-]	.
4d-	.
4f	.
4a-	.
=||	 =||
4b-	G diminished-seventh
4cc	.
8b-	C dominant
4gn	.
[8a-	.
!!linebreak:original
=	=
1a-]	F minor-seventh
=	=
4cc	A diminished-seventh
4ddn	.
8cc	D dominant
4an	.
[8b-	.
=	=
1b-]	G minor-sixth
=	=
4dd-	G diminished-seventh
4ee-	.
8dd-	.
4b-	.
[8dd-	.
=	=
2dd-]	C dominant
2ee-	.
!!linebreak:original
=	=
[1cc	F major-seventh
.	E major-seventh
=	=
2cc]	E- major-seventh
8r	D major-seventh
8cc	.
12a-L	.
12f	.
12d-J	.
=||	=||
2.c	D- major-seventh
8d-L	.
[8anJ	.
=	=
2a]	B- major-seventh
2b-	B- augmented-seventh
=	=
[1f	E- dominant-ninth
!!linebreak:original
=	=
2f]	.
8r	.
8a-	.
12fL	.
12d- 	.
12AnJ	.
=	=
2.G#X	A major-seventh
4An	.
=	=
2en	.
2f	A- dominant
=	=
[1gn	D- dominant
=	=
2.g]	.
4a-	.
!!linebreak:original
=	=
4an	G- major-seventh
4b-	.
4a	.
4b-	.
=	=
2ee-	C dominant
4.dd-	.
8cc	.
=	=
2cc-X	F dominant
4.a-	.
8f	.
=	=
2r	B- dominant
8r	.
8cc	.
12a-L	.
12f	.
12d-J	.
!!linebreak:original
=	=
2.c	E- dominant-ninth
8d-L	.
[8anJ	.
=	=
2a]	A- dominant
2b-	A- augmented-seventh
=	=
[1b-	D- major-seventh
=	=
2b-]	E- minor-seventh
2r	A- dominant
=	=
[1b-	D- major-seventh
=	=
2b-]	.
2r	.
==	==
*-	*-